X:78
T: Der Jaeger im Tannenholz
N: Q0151A
O: Mitteleuropa, Deutschland (DDR) , Brandenburg, Frankfurt a.d.O.,
R: Ballade, abgewiesener Freier, Abschied
M: 6/8
L: 1/8
K: C
E | G2GGAB | c3A2
A | G2EFED | C2z3
E | G2GGAB | c3A2
A | GFEFED | C2z3

@@@ Tune index: 1681
